database/data/flag-of-zimbabwe.svg

<?xml version="1.0" encoding="UTF-8"?>
<svg
   xmlns="http://www.w3.org/2000/svg"
   xmlns:xlink="http://www.w3.org/1999/xlink"
   width="1008"
   height="504"
   viewBox="0 0 252 126">

<rect id="green_stripes"	width="252" height="126"	fill="#319208"/>
<rect id="yellow_stripes"	width="252" height="90"	y="18"	fill="#FFD200"/>
<rect id="red_stripes"		width="252" height="54" y="36"	fill="#DE2010"/>
<rect id="black_stripe"		width="252" height="18" y="54"	fill="#000"/>

<path d="M4.582575694955840006588047193728,0 l 84,63 l -84,63 L 0,126 v-126 z" fill="#000"/> <comment>value has to be sqrt(21)</comment>
<path d="M0,0 L 84,63 L 0,126" fill="#FFF"/>

<g id="star">

<g id="upper_star_part" fill="#DE2010" transform="translate(34,63) scale(32)">
  <g>
    <polygon id="triangle_ur" points="0,0 0,1 .75,1" transform="translate(0,-1) rotate(26.26769855)"/>
    <use id="triangle_ul" xlink:href="#triangle_ur" transform="scale(-1,1)"/>
    <polygon id="triangle2_ur" points="0,0 0,1 .75,1" transform="translate(0,-1) rotate(19.57996077)"/>
    <use id="triangle2_ul" xlink:href="#triangle2_ur" transform="scale(-1,1)"/>
  </g>
  <use xlink:href="#triangle_ur" transform="rotate(72)"/>
  <use xlink:href="#triangle_ul" transform="rotate(-72)"/>
  <use xlink:href="#triangle2_ur" transform="rotate(72)"/>
  <use xlink:href="#triangle2_ul" transform="rotate(-72)"/>
</g>

<g id="lower_star_part" fill="#DE2010" transform="translate(34,63) scale(27.5)">
  <g id="cone_l">
    <polygon id="triangle_l" points="0,0 0,1 .5,1" transform="translate(0,-1) rotate(24.22482095)"/>
    <use xlink:href="#triangle_l" transform="scale(-1,1)"/>
  </g>
  <use xlink:href="#cone_l" transform="rotate(144)"/>
  <use xlink:href="#cone_l" transform="rotate(-144)"/>
</g>

</g>

<g id="bird">
  <path d="M 28.63541,55.109321 C 30.611561,59.414581 31.105753,59.697041 36.046234,61.390941 C 40.986715,63.084631 54.943835,64.690451 56.320131,64.849251 C 55.420245,63.949371 39.698712,52.303801 36.46971,49.974681 C 33.240707,47.645571 32.340822,46.586881 32.340822,46.586881 C 32.340822,46.586881 29.429427,41.346381 28.423672,39.811281 C 27.417918,38.276181 25.565211,36.105871 23.130227,36.105871 C 20.695242,36.105871 19.21318,37.535101 18.507353,40.075951 C 18.119132,40.181821 16.037009,41.452451 16.107623,42.758031 C 16.707582,42.687311 20.483608,41.628621 21.78929,45.898731 C 23.095075,50.168841 23.165585,57.155981 21.824545,60.614501 C 20.483504,64.073021 18.401485,66.684171 18.401485,69.719221 C 18.401485,70.142691 18.683733,70.989641 19.38956,70.989641 C 19.636553,72.330791 21.612807,81.894131 21.612807,81.894131 L 49.774042,81.894131 L 54.247003,64.602161" style="fill:#ffc618;overflow:visible"/>
 <g style="fill:none;stroke:black;stroke-width:0.21173774;overflow:visible">
  <path d="M 28.63541,55.109321 C 30.611561,59.414581 31.105753,59.697041 36.046234,61.390941 C 40.986715,63.084631 54.943835,64.690451 56.320131,64.849251 C 55.420245,63.949371 39.698712,52.303801 36.46971,49.974681 C 33.240707,47.645571 32.340822,46.586881 32.340822,46.586881 C 32.340822,46.586881 29.429427,41.346381 28.423672,39.811281 C 27.417918,38.276181 25.565211,36.105871 23.130227,36.105871 C 20.695242,36.105871 19.21318,37.535101 18.507353,40.075951 C 18.119132,40.181821 16.037009,41.452451 16.107623,42.758031 C 16.707582,42.687311 20.483608,41.628621 21.78929,45.898731 C 23.095075,50.168841 23.165585,57.155981 21.824545,60.614501 C 20.483504,64.073021 18.401485,66.684171 18.401485,69.719221 C 18.401485,70.142691 18.683733,70.989641 19.38956,70.989641 C 19.636553,72.330791 21.612807,81.894131 21.612807,81.894131 L 49.774042,81.894131 L 54.247003,64.602161"/>
  <path d="M 19.38956,70.989641 C 19.38956,70.989641 25.388832,70.636881 27.012225,70.636881 C 28.63541,70.636881 43.74613,70.655501 52.176976,72.604761"/>
  <path d="M 21.508178,70.870751 C 21.508178,70.870751 20.907083,70.142691 21.2952,68.695891 C 21.683318,67.249081 25.918177,63.508111 25.918177,58.214871"/>
  <path d="M 25.141736,70.636881 C 25.141736,70.636881 24.64775,68.272411 30.047065,66.260901 C 31.564587,65.802071 35.905007,63.367091 36.046234,61.390941"/>
  <path d="M 29.473056,66.485261 C 29.473056,66.485261 42.71639,66.543151 53.197205,68.660531"/>
  <path d="M 32.792626,64.905291 C 32.792626,64.905291 37.343128,65.060991 38.084211,64.849251 C 38.825293,64.637511 40.137077,64.087081 40.658976,62.536061"/>
  <path d="M 35.490423,64.959261 C 35.490423,64.959261 37.924582,63.693791 38.401404,62.048281"/>
  <path d="M 28.141424,81.894131 C 28.141424,81.894131 27.100311,74.677681 26.888574,70.636881 L 29.606013,73.230671 L 32.480809,70.716491 L 34.952392,73.354321 L 37.810027,70.929471 L 40.28099,73.707081 L 43.110918,71.300431 L 45.362698,73.918821 L 48.184976,71.877951 L 51.540109,75.066631"/>
  <path d="M 50.9508,77.345081 C 40.870302,75.901381 27.380491,75.995051 27.380491,75.995051"/>
  <path d="M 22.693931,51.052191 C 22.693931,51.052191 30.89381,47.133801 32.340822,46.586881"/>
 </g>
 <g style="fill:none;stroke:black;overflow:visible" transform="matrix(0.211738,0,0,0.211738,16,36)" >
  <polyline points="52.4873047,177.0859375 65.5048828,188.9375 77.2666016,177.1757813 89.1630859,189.4423828 102.0087891,178.0839844 113.8359375,190.5136719 127.1748047,179.5009766 138.0722656,192.2285156 151.3417969,182.0839844 165.2890625,194.4033203"/>
  <circle cx="89.425293" cy="154.58398" r="5.1665039"/>
  <circle cx="111.23682" cy="156.04688" r="5.1665039"/>
  <circle cx="30.049805" cy="16.5" r="4"/>
 </g>
</g>

</svg>

<?xml version="1.0" encoding="utf-8"?>
<svg xmlns="http://www.w3.org/2000/svg" xmlns:xlink="http://www.w3.org/1999/xlink" width="1200" height="600" viewBox="0 0 252 126">
<rect fill="#319208" width="252" height="126"/>
<rect y="18" fill="#FFD200" width="252" height="90"/>
<rect y="36" fill="#DE2010" width="252" height="54"/>
<rect y="54" width="252" height="18"/>
<path d="M4.583,0l84,63l-84,63H0V0H4.583z"/>
<path fill="#FFF" d="M0,0l84,63L0,126"/>
<polygon fill="#DE2010" points="46.161,66.045 64.434,53.111 43.405,50.056 34,31 24.595,50.056 3.566,53.111 21.839,66.045 17.836,85.248 34,76 50.164,85.248 "/>
<path fill="#FFC618" d="M28.635,55.109c1.976,4.305,2.47,4.588,7.411,6.282c4.94,1.694,18.898,3.3,20.274,3.458c-0.9-0.9-16.621-12.545-19.85-14.875c-3.229-2.329-4.129-3.388-4.129-3.388s-2.911-5.24-3.917-6.776c-1.006-1.535-2.858-3.705-5.293-3.705s-3.917,1.429-4.623,3.97c-0.388,0.106-2.47,1.376-2.4,2.682c0.6-0.071,4.376-1.129,5.682,3.141c1.306,4.27,1.376,11.257,0.035,14.716c-1.341,3.459-3.423,6.07-3.423,9.105c0,0.423,0.282,1.27,0.988,1.27c0.247,1.341,2.223,10.904,2.223,10.904h28.161l4.473-17.292"/>
<g fill="none" stroke="#000" stroke-width="0.2117">
<path d="M28.635,55.109c1.976,4.305,2.47,4.588,7.411,6.282c4.94,1.694,18.898,3.3,20.274,3.458c-0.9-0.9-16.621-12.545-19.85-14.875c-3.229-2.329-4.129-3.388-4.129-3.388s-2.911-5.24-3.917-6.776c-1.006-1.535-2.858-3.705-5.293-3.705s-3.917,1.429-4.623,3.97c-0.388,0.106-2.47,1.376-2.4,2.682c0.6-0.071,4.376-1.129,5.682,3.141c1.306,4.27,1.376,11.257,0.035,14.716c-1.341,3.459-3.423,6.07-3.423,9.105c0,0.423,0.282,1.27,0.988,1.27c0.247,1.341,2.223,10.904,2.223,10.904h28.161l4.473-17.292"/>
<path d="M19.39,70.99c0,0,5.999-0.353,7.623-0.353c1.623,0,16.734,0.019,25.165,1.968"/>
<path d="M21.508,70.871c0,0-0.601-0.728-0.213-2.175	c0.388-1.447,4.623-5.188,4.623-10.481"/>
<path d="M25.142,70.637c0,0-0.494-2.364,4.905-4.376	c1.518-0.459,5.858-2.894,5.999-4.87"/>
<path d="M29.473,66.485c0,0,13.243,0.058,23.724,2.175"/>
<path d="M32.793,64.905c0,0,4.551,0.156,5.292-0.056c0.741-0.212,2.053-0.762,2.575-2.313"/>
<path d="M35.49,64.959c0,0,2.434-1.265,2.911-2.911"/>
<path d="M28.141,81.894c0,0-1.041-7.216-1.253-11.257l2.717,2.594l2.875-2.514l2.472,2.638l2.858-2.425l2.471,2.778l2.83-2.407l2.252,2.618l2.822-2.041l3.355,3.189"/>
<path d="M50.951,77.345c-10.081-1.444-23.57-1.35-23.57-1.35"/>
<path d="M22.694,51.052c0,0,8.2-3.918,9.647-4.465"/>
</g>
<g transform="matrix(0.211738,0,0,0.211738,16,36)" fill="none" stroke="#000" >
<polyline points="52.487,177.086 65.505,188.938 77.267,177.176 89.163,189.442 102.009,178.084 113.836,190.514 127.175,179.501 138.072,192.229 151.342,182.084 165.289,194.403"/>
<circle cx="89.425" cy="154.584" r="5.167"/>
<circle cx="111.237" cy="156.047" r="5.167"/>
<circle cx="30.05" cy="16.5" r="4"/>
</g>
</svg>
